X: 31327
T: Paddy McGinty's
R: barndance
M: 4/4
K: Gmajor
|:G>A|B2 B>A G2 G>A|B>AB>c d2- d>B|c2 c>B A2 A>B|c>Bc>d e2 d>c|
B2 B>A G2 G>A|B>AB>c d2- d>B|c2 c>B A2 d>c|B>G G>F G2:|
|:d2|g2 g>e d2 d>e|g>ag>e d2- d>e|f2 f>e d2 d>e|f>gf>e d2 d2|
g2 g>e d2 d>B|c>Bc>d B2- B>B|c2 c>B A>d d>c|B>G (3GGG G2:|

